X:60
T:The Sally Gardens
M:4/4
L:1/8
Q:160
C:Traditional
K:G
G2 DG B2 GB |dBeB dBAB |d2 Bd efge |dBAB GEDE |
G2 DG B2 GB |dBeB dBAB |d2 Bd efge |dBAB G3 B ||
dggf g2 dg |g2 bg aged |eaag a3 a |gabg ageg |
dggf g2 dg |g2 bg ageg |d2 Bd efge |dBAB G2 z2 ||
%  ABC2Win Version 2.1 20/06/2002
